X: 32955
T: President Lincoln's
R: hornpipe
M: 4/4
K: Amajor
|:E2|A2 cA EAcA|GABG AEce|dfec dcBA|GBec dBGE|
AEcA EAcA|GABG A2 ce|d2 fd c2 BG|A2 A2 A2:|
|:cd|eAce agfe|G2 Ac dEFG|A,CEA FdBA|G2 F2 E2 cd|
eAce a2 ge|fBdf b2 af|ceAc BdGB|A2 c2 A2:|

